src/assets/img/settings.svg

<svg width="30" height="30" viewBox="0 0 30 30" fill="none" xmlns="http://www.w3.org/2000/svg">
<path d="M15 25.4167C12.9398 25.4167 10.9259 24.8058 9.21286 23.6612C7.49984 22.5166 6.16471 20.8897 5.3763 18.9863C4.58789 17.0829 4.3816 14.9885 4.78353 12.9679C5.18546 10.9472 6.17755 9.09115 7.63435 7.63435C9.09115 6.17755 10.9472 5.18546 12.9679 4.78353C14.9885 4.3816 17.0829 4.58789 18.9863 5.3763C20.8897 6.16471 22.5166 7.49984 23.6612 9.21286C24.8058 10.9259 25.4167 12.9398 25.4167 15C25.4134 17.7617 24.3149 20.4093 22.3621 22.3621C20.4093 24.3149 17.7617 25.4134 15 25.4167ZM15 8.75004C13.7639 8.75004 12.5555 9.1166 11.5277 9.80336C10.4999 10.4901 9.69885 11.4662 9.2258 12.6083C8.75275 13.7503 8.62898 15.007 8.87014 16.2194C9.1113 17.4317 9.70655 18.5454 10.5806 19.4195C11.4547 20.2935 12.5684 20.8888 13.7807 21.13C14.9931 21.3711 16.2498 21.2473 17.3918 20.7743C18.5339 20.3012 19.51 19.5002 20.1967 18.4724C20.8835 17.4446 21.25 16.2362 21.25 15C21.25 13.3424 20.5916 11.7527 19.4195 10.5806C18.2474 9.40852 16.6577 8.75004 15 8.75004Z" fill="#FFFFFE"/>
<path d="M17.0834 0.416687H12.9167V6.66669H17.0834V0.416687Z" fill="#FFFFFE"/>
<path d="M17.0834 23.3333H12.9167V29.5833H17.0834V23.3333Z" fill="#FFFFFE"/>
<path d="M29.5834 12.9167H23.3334V17.0834H29.5834V12.9167Z" fill="#FFFFFE"/>
<path d="M6.66669 12.9167H0.416687V17.0834H6.66669V12.9167Z" fill="#FFFFFE"/>
<path d="M23.9423 3.11082L19.7762 7.27686L22.7225 10.2231L26.8886 6.0571L23.9423 3.11082Z" fill="#FFFFFE"/>
<path d="M6.05614 3.11055L3.10986 6.05682L7.2759 10.2229L10.2222 7.27658L6.05614 3.11055Z" fill="#FFFFFE"/>
<path d="M7.27569 19.7769L3.10965 23.9429L6.05593 26.8892L10.222 22.7232L7.27569 19.7769Z" fill="#FFFFFE"/>
<path d="M22.7243 19.7772L19.778 22.7235L23.9441 26.8895L26.8904 23.9432L22.7243 19.7772Z" fill="#FFFFFE"/>
</svg>

<?xml version="1.0" encoding="UTF-8"?>
<svg viewBox="0 0 30 30" xmlns="http://www.w3.org/2000/svg">
    <path d="m15 25.417c-2.0602 0-4.0741-0.6109-5.7871-1.7555-1.713-1.1446-3.0482-2.7715-3.8366-4.6749s-0.9947-3.9978-0.59277-6.0184c0.40193-2.0207 1.394-3.8768 2.8508-5.3336s3.3128-2.4489 5.3336-2.8508c2.0206-0.40193 4.115-0.19564 6.0184 0.59277s3.5303 2.1235 4.6749 3.8366c1.1446 1.713 1.7555 3.7269 1.7555 5.7871-0.0033 2.7617-1.1018 5.4093-3.0546 7.3621s-4.6004 3.0513-7.3621 3.0546zm0-16.667c-1.2361 0-2.4445 0.36656-3.4723 1.0533-1.0278 0.68674-1.8288 1.6628-2.3019 2.8049-0.47305 1.142-0.59682 2.3987-0.35566 3.6111 0.24116 1.2123 0.83641 2.326 1.7105 3.2001 0.8741 0.874 1.9878 1.4693 3.2001 1.7105 1.2124 0.2411 2.4691 0.1173 3.6111-0.3557 1.1421-0.4731 2.1182-1.2741 2.8049-2.3019 0.6868-1.0278 1.0533-2.2362 1.0533-3.4724 0-1.6576-0.6584-3.2473-1.8305-4.4194-1.1721-1.1721-2.7618-1.8306-4.4195-1.8306z" fill="#FFFFFE"/>
    <path d="m17.083 0.41669h-4.1667v6.25h4.1667v-6.25z" fill="#FFFFFE"/>
    <path d="m17.083 23.333h-4.1667v6.25h4.1667v-6.25z" fill="#FFFFFE"/>
    <path d="m29.583 12.917h-6.25v4.1667h6.25v-4.1667z" fill="#FFFFFE"/>
    <path d="m6.6667 12.917h-6.25v4.1667h6.25v-4.1667z" fill="#FFFFFE"/>
    <path d="m23.942 3.1108-4.1661 4.166 2.9463 2.9462 4.1661-4.166-2.9463-2.9463z" fill="#FFFFFE"/>
    <path d="m6.0561 3.1106-2.9463 2.9463 4.166 4.1661 2.9463-2.9463-4.1661-4.166z" fill="#FFFFFE"/>
    <path d="m7.2757 19.777-4.166 4.166 2.9463 2.9463 4.1661-4.166-2.9463-2.9463z" fill="#FFFFFE"/>
    <path d="m22.724 19.777-2.9463 2.9463 4.1661 4.166 2.9463-2.9463-4.1661-4.166z" fill="#FFFFFE"/>
</svg>
